X:36
T:Hag At the Churn
M:6/8
L:1/8
R:jig
K:G
A2G ADD | A2G Adc | A2G ADD | EFG EFG | A2G ADD |
A2G Adc | A2G ADD | EFG EFG |AdB c3 | Add efg |
AdB c2A | GEG AED | AdB c3 | Add efg | age dcA | GEG AED |]
